dest/img/social/tg.svg

<svg width="32" height="32" viewBox="0 0 32 32" fill="none" xmlns="http://www.w3.org/2000/svg">
<path fill-rule="evenodd" clip-rule="evenodd" d="M0 16C0 24.8366 7.16344 32 16 32C24.8366 32 32 24.8366 32 16C32 7.16344 24.8366 0 16 0C7.16344 0 0 7.16344 0 16ZM13.0666 23.3333L13.3389 19.2548L13.3386 19.2547L20.7579 12.5593C21.0835 12.2703 20.6868 12.1294 20.2545 12.3915L11.0981 18.1682L7.14308 16.9338C6.28896 16.6722 6.28283 16.0853 7.33484 15.6634L22.7468 9.72056C23.4507 9.40099 24.1301 9.88963 23.8614 10.967L21.2368 23.3354C21.0535 24.2143 20.5224 24.4245 19.7866 24.0185L15.7884 21.0646L13.8666 22.9333C13.8606 22.9392 13.8545 22.9451 13.8485 22.9509C13.6336 23.1602 13.4558 23.3333 13.0666 23.3333Z" fill="white"/>
</svg>

<svg width="32" height="32" fill="none" xmlns="http://www.w3.org/2000/svg"><path fill-rule="evenodd" clip-rule="evenodd" d="M0 16c0 8.837 7.163 16 16 16s16-7.163 16-16S24.837 0 16 0 0 7.163 0 16Zm13.067 7.333.272-4.078 7.419-6.696c.326-.289-.071-.43-.503-.167l-9.157 5.776-3.955-1.234c-.854-.262-.86-.849.192-1.27L22.747 9.72c.704-.32 1.383.169 1.114 1.246l-2.624 12.368c-.183.88-.715 1.09-1.45.683l-3.999-2.953-1.921 1.868a2.963 2.963 0 0 1-.019.018c-.214.21-.392.382-.781.382Z" fill="#fff"/></svg>
